15-rwd/assets/images/cursor.svg

<svg width="29" height="27" viewBox="0 0 29 27" fill="none" xmlns="http://www.w3.org/2000/svg">
<path d="M1.63689 1.00705C2.79277 0.245359 4.4469 0.604377 5.22552 1.78594L8.44482 6.67124C8.75209 5.32214 10.2882 4.16913 12.1189 4.69211C12.7752 3.25703 14.6436 2.87774 15.6981 3.48784C17.813 1.46442 19.8923 2.26398 21.5254 4.74227C21.6139 4.87662 21.9435 5.39835 22.0317 5.53137C24.0379 8.55794 22.991 10.295 24.1463 12.8203C24.4343 13.4497 24.218 14.1954 23.6401 14.5763L15.2481 20.1064L15.248 20.1063C14.349 20.6979 13.1501 20.7445 12.1851 20.1273C10.618 19.133 6.70968 17.0402 4.93499 17.3591C3.7934 17.5642 2.82258 17.2506 2.22199 16.34C1.11796 14.6661 2.07721 12.3829 4.07308 12.0243C4.59758 11.9301 5.15667 11.8935 5.74853 11.9133L0.937068 4.61193C0.181015 3.46462 0.497753 1.75772 1.63689 1.00705ZM15.0662 21.349L24.46 15.1587C25.1085 14.7314 25.9806 14.9106 26.408 15.5592L27.9555 17.9076C28.3829 18.5561 28.2036 19.4283 27.5551 19.8556L18.1613 26.0459C17.5128 26.4732 16.6407 26.294 16.2133 25.6455L14.6658 23.297C14.2384 22.6485 14.4177 21.7764 15.0662 21.349ZM24.1885 17.3024C23.6481 17.6586 23.4987 18.3853 23.8548 18.9258C24.2109 19.4662 24.9377 19.6156 25.4781 19.2595C26.0186 18.9033 26.168 18.1766 25.8118 17.6361C25.4557 17.0957 24.7289 16.9463 24.1885 17.3024Z" fill="black"/>
</svg>

<svg xmlns="http://www.w3.org/2000/svg" width="29" height="27" fill="none"><path fill="#000" d="M1.637 1.007c1.156-.762 2.81-.403 3.589.779L8.445 6.67c.307-1.349 1.843-2.502 3.674-1.979.656-1.435 2.525-1.814 3.58-1.204 2.114-2.024 4.193-1.224 5.826 1.254.089.135.419.656.507.79 2.006 3.026.959 4.763 2.114 7.288.288.63.072 1.375-.506 1.756l-8.392 5.53a2.812 2.812 0 0 1-3.063.021c-1.567-.994-5.475-3.087-7.25-2.768-1.142.205-2.112-.108-2.713-1.019-1.104-1.674-.145-3.957 1.851-4.316a7.967 7.967 0 0 1 1.676-.11L.937 4.611c-.756-1.147-.44-2.854.7-3.605Zm13.43 20.342 9.393-6.19a1.406 1.406 0 0 1 1.948.4l1.547 2.349c.428.648.249 1.52-.4 1.948l-9.394 6.19a1.406 1.406 0 0 1-1.948-.4l-1.547-2.349a1.406 1.406 0 0 1 .4-1.948Zm9.122-4.047a1.172 1.172 0 1 0 1.29 1.958 1.172 1.172 0 0 0-1.29-1.958Z"/></svg>
